X:1
T:Title
%%score { ( 1 2 ) | ( 3 4 ) }
L:1/8
M:6/8
K:E
V:1 treble nm="Grand Piano"
V:2 treble 
V:3 bass 
V:4 bass 
V:1
 z3[Q:1/4=100] z2 F | G2 G G2 [FA] | [Ac]2 [GB] E2 F | G2 G F2 E |[M:3/8] [DF]3 | E2 F | %6
[M:3/4] G2 G G2 [FA] | [Ac]2 [GB] E2 [EF] | [EG]2 [EB] [DF]2 [DG] |[M:5/8] [B,E]-[B,E]- [B,E]3 | %10
[M:1/8] [GB] |[M:3/4] [GB][GB] [GB] [GB]2 [Ac] | [GB][EG]- [EG]3 z | [DA][DA] [DA] .[DA]3 | %14
 GG G G2 [FA] |[M:7/8] [GB][GB][GB] [Ge]3 [Ac] |[M:3/4] [GB]G- G3 z | G3 [DF]3 | %18
[M:9/16] [B,E]4- [B,E]/ |] %19
V:2
 z3 E3 | x6 | x6 | x6 |[M:3/8] x3 | x3 |[M:3/4] x6 | x6 | x6 |[M:5/8] x5 |[M:1/8] x |[M:3/4] x6 | %12
 x6 | x6 | x6 |[M:7/8] x7 |[M:3/4] x6 | x6 |[M:9/16] x9/2 |] %19
V:3
 z3 G,2 A, | [E,B,E]2 [E,B,E] [E,B,E]2 [E,B,] | [E,E]2 [E,E] [E,G,]2 [E,A,E] | %3
 [E,B,E]2 [E,B,E] [D,B,]2 [C,^A,C] |[M:3/8] [B,,B,]3 | [E,G,]2 [E,A,E] | %6
[M:3/4] [E,B,E]2 [E,B,E] [E,B,E]2 [E,B,] | [E,E]2 [E,E] [C,^A,]2 [C,A,] | %8
 [B,,B,]2 [B,,G,] [B,,A,]2 [B,,B,] |[M:5/8] [E,G,]-[E,G,]- [E,G,]3 |[M:1/8] [E,B,] | %11
[M:3/4] [E,E][E,E] [E,E] [E,E]2 [E,E] | [E,E][E,B,]- [E,B,]3 z | [B,,B,][B,,B,] [B,,B,] .[B,,B,]3 | %14
 [E,B,E][E,B,E] [E,B,E] [E,B,E]2 [E,B,] |[M:7/8] [E,E][E,E][E,E] [E,B,]3 [E,E] | %16
[M:3/4] [E,E][E,B,E]- [E,B,E]3 z | [B,E]3 [B,,A,]3 |[M:9/16] [E,G,]4- [E,G,]/ |] %19
V:4
 z3 E,3 | x6 | x6 | x6 |[M:3/8] x3 | x3 |[M:3/4] x6 | x6 | x6 |[M:5/8] x5 |[M:1/8] x |[M:3/4] x6 | %12
 x6 | x6 | x6 |[M:7/8] x7 |[M:3/4] x6 | x6 |[M:9/16] x9/2 |] %19

